icon/lg/django.svg

<?xml version="1.0" encoding="UTF-8"?>
<svg viewBox="0 0 512 179" version="1.1" xmlns="http://www.w3.org/2000/svg" xmlns:xlink="http://www.w3.org/1999/xlink" preserveAspectRatio="xMidYMid" height="1em" width="1em">
  <g>
    <path d="M386.891623,41.4228474 C398.893282,41.4228474 409.984729,42.6943288 423.439677,45.4214453 L413.851956,65.618529 C406.396664,64.1640668 413.254923,65.4238187 407.621228,64.8783954 L407.621228,67.7884927 L407.98367,79.6048247 L408.164305,94.8790231 C408.346113,98.6958133 408.346113,102.514949 408.529094,106.332913 L408.529094,113.970012 L408.529094,113.970012 C408.529094,137.970983 406.529208,149.243065 400.529552,158.515261 C391.801606,172.15319 376.710388,178.880077 355.255899,178.880077 C344.346259,178.880077 334.893428,177.243807 325.073463,173.424671 L325.073463,147.606795 L325.074636,147.606795 C334.894601,152.697412 344.712221,155.05974 355.075264,155.05974 C373.437848,155.05974 381.256755,147.606795 381.256755,129.787288 L381.256755,129.241864 L381.256755,129.241864 C375.802522,131.967808 370.347116,133.059827 363.075979,133.059827 C338.529584,133.059827 322.890597,116.877763 322.890597,91.2416948 C322.890597,59.4206435 345.983702,41.4228474 386.891623,41.4228474 Z M132.909689,43.2409251 L132.909689,108.149817 C132.909689,130.514519 131.27342,141.241177 126.36461,150.514546 C121.818243,159.425473 115.817413,165.060341 103.454485,171.242978 L77.4536283,158.878877 C89.8177295,153.061028 95.8173858,147.971583 99.635349,140.15033 C103.636293,132.150789 104.91012,122.87742 104.91012,98.5140056 L104.91012,43.2409251 L132.909689,43.2409251 Z M466.908155,40.8774241 C494.907724,40.8774241 512,58.5151235 512,87.0601161 C512,116.334686 494.182839,134.698443 465.817308,134.698443 C437.815393,134.698443 420.542482,117.060744 420.542482,88.697559 C420.543655,59.2400087 438.363162,40.8774241 466.908155,40.8774241 Z M186.914807,41.2422126 C201.278794,41.2422126 210.732798,45.0590028 214.91555,52.5142942 C217.277878,56.6958729 218.005109,62.150106 218.005109,73.788149 L218.005109,130.696327 C205.458027,132.514404 189.640751,133.788232 178.005054,133.788232 C154.550679,133.788232 144.003482,125.603363 144.003482,107.422586 C144.003482,87.7850013 158.003853,78.6946129 192.36904,75.7845156 L192.36904,69.6030515 C192.36904,64.512434 189.823732,62.6955293 182.732056,62.6955293 C172.369013,62.6955293 160.732143,65.6044536 149.821331,71.2416673 L149.821331,49.604197 L149.822504,49.604197 C162.187778,43.7875213 174.005283,41.2422126 186.914807,41.2422126 Z M88.3656132,0 L88.3656132,129.606653 C74.0016266,132.333769 63.455603,133.424616 52.0017136,133.424616 C17.8183343,133.424616 0,117.970956 0,88.3327705 C0,59.786605 18.9103538,41.2422126 48.1825775,41.2422126 C52.7277717,41.2422126 56.1821193,41.6046552 60.364871,42.6955018 L60.364871,0 L88.3656132,0 Z M275.642863,41.2422126 C290.00685,41.2422126 300.371066,44.5135795 306.554876,50.8780243 C312.372724,56.8765077 314.189629,63.4215874 314.189629,77.4243044 L314.189629,132.332596 L286.188887,132.332596 L286.188887,78.515151 C286.188887,67.7884927 282.552731,63.7863759 272.553304,63.7863759 C268.735341,63.7863759 265.280993,64.1499914 259.642607,65.7862613 L259.642607,132.332596 L231.643037,132.332596 L231.643037,47.6043115 C248.187544,43.2409251 261.8243,41.2422126 275.642863,41.2422126 Z M193.641695,94.1506191 C175.094957,95.9686968 169.0953,98.8787941 169.0953,106.151105 C169.0953,111.605338 172.550821,114.150647 180.186747,114.150647 C184.369499,114.150647 188.186289,113.788204 193.641695,112.879165 L193.641695,94.1506191 Z M466.545712,63.4227603 C455.453092,63.4227603 449.087474,72.3336869 449.087474,87.7861743 C449.088647,103.242181 455.453092,112.150761 466.360385,112.150761 C477.08939,112.150761 483.453834,103.241008 483.453834,87.7861743 C483.453834,72.5143217 477.271197,63.4227603 466.545712,63.4227603 Z M50.910867,63.7863759 C36.7286881,63.7863759 28.5461656,72.5143217 28.5461656,87.7861743 C28.5461656,102.696757 36.3650726,110.878107 50.7290592,110.878107 C53.8186183,110.878107 56.3651001,110.696299 60.364871,110.152049 L60.364871,65.2396651 C57.0923311,64.1499914 54.3652146,63.7863759 50.910867,63.7863759 Z M361.621516,67.9667816 C354.895802,71.7859177 351.439108,78.6957858 351.439108,88.5134053 C351.439108,102.514949 358.350149,110.514491 370.713078,110.514491 C374.531041,110.514491 377.622946,109.786087 381.257928,108.696414 L381.257928,99.0606018 C381.257928,95.788062 381.077294,92.1495607 381.077294,88.3327705 L380.896659,75.424419 L380.713678,66.1510498 L380.713678,63.9681836 L377.803581,63.9681836 C372.350521,63.7863759 365.987249,65.2396651 361.621516,67.9667816 Z M132.909689,0.148965075 L132.909689,28.8769384 L104.91012,28.8769384 L104.91012,0.148965075 L132.909689,0.148965075 Z" fill="#092E20"/>
  </g>
</svg>

<svg width="512" height="179" xmlns="http://www.w3.org/2000/svg" preserveAspectRatio="xMidYMid"><path d="M386.892 41.423c12.001 0 23.093 1.271 36.548 3.998l-9.588 20.198c-7.455-1.455-.597-.195-6.23-.74v2.91l.362 11.816.18 15.274c.182 3.817.182 7.636.365 11.454v7.637c0 24.001-2 35.273-8 44.545-8.727 13.638-23.819 20.365-45.273 20.365-10.91 0-20.363-1.636-30.183-5.455v-25.818h.002c9.82 5.09 19.637 7.453 30 7.453 18.363 0 26.182-7.453 26.182-25.273v-.545c-5.454 2.726-10.91 3.818-18.181 3.818-24.546 0-40.185-16.182-40.185-41.818 0-31.821 23.093-49.82 64-49.82ZM132.91 43.24v64.909c0 22.365-1.637 33.091-6.545 42.365-4.547 8.91-10.548 14.545-22.91 20.728l-26.001-12.364c12.364-5.818 18.363-10.907 22.181-18.729 4.001-8 5.275-17.273 5.275-41.636V43.241h28Zm333.998-2.364c28 0 45.092 17.638 45.092 46.183 0 29.275-17.817 47.638-46.183 47.638-28.002 0-45.275-17.637-45.275-46 .002-29.458 17.821-47.82 46.366-47.82Zm-279.993.365c14.364 0 23.818 3.817 28 11.272 2.363 4.182 3.09 9.636 3.09 21.274v56.908c-12.547 1.818-28.364 3.092-40 3.092-23.454 0-34.002-8.185-34.002-26.365 0-19.638 14-28.728 48.366-31.638v-6.182c0-5.09-2.545-6.907-9.637-6.907-10.363 0-22 2.908-32.91 8.546V49.604c12.366-5.816 24.183-8.362 37.093-8.362ZM88.365 0v129.607c-14.363 2.727-24.91 3.818-36.363 3.818C17.818 133.425 0 117.97 0 88.333c0-28.546 18.91-47.09 48.183-47.09 4.545 0 8 .362 12.182 1.453V0h28Zm187.278 41.242c14.364 0 24.728 3.272 30.912 9.636 5.818 5.999 7.635 12.544 7.635 26.546v54.909h-28.001V78.515c0-10.727-3.636-14.729-13.636-14.729-3.818 0-7.272.364-12.91 2v66.547h-28V47.604c16.545-4.363 30.181-6.362 44-6.362Zm-82.001 52.909c-18.547 1.818-24.547 4.728-24.547 12 0 5.454 3.456 8 11.092 8 4.182 0 8-.363 13.455-1.272V94.151Zm272.904-30.728c-11.093 0-17.459 8.91-17.459 24.363.002 15.456 6.366 24.365 17.273 24.365 10.73 0 17.094-8.91 17.094-24.365 0-15.272-6.183-24.363-16.908-24.363Zm-415.635.363c-14.182 0-22.365 8.728-22.365 24 0 14.91 7.82 23.092 22.183 23.092 3.09 0 5.636-.182 9.636-.726V65.24c-3.273-1.09-6-1.454-9.454-1.454Zm310.71 4.18c-6.725 3.82-10.182 10.73-10.182 20.547 0 14.002 6.911 22.001 19.274 22.001 3.818 0 6.91-.728 10.545-1.818v-9.635c0-3.273-.18-6.911-.18-10.728l-.181-12.909-.183-9.273v-2.183h-2.91c-5.453-.182-11.817 1.272-16.182 3.999ZM132.91.15v28.728h-28V.149h28Z" fill="#092E20"/></svg>
